packages/ffe-icons/icons/open/300/md/auto_transmission.svg

<svg xmlns="http://www.w3.org/2000/svg" height="24" viewBox="0 -960 960 960" width="24"><path d="M165.046-140.001q-45.815 0-77.93-32.084-32.115-32.083-32.115-77.916 0-37.461 22.692-66.73 22.693-29.269 57.308-38.577v-249.384Q100.386-614 77.693-643.269q-22.692-29.269-22.692-66.73 0-45.833 32.07-77.916 32.07-32.084 77.884-32.084t77.929 32.084Q275-755.832 275-709.999q0 37.461-22.693 66.73Q229.615-614 195-604.692v94.693h255.001v-94.693q-34.616-9.308-57.308-38.577t-22.692-66.73q0-45.833 32.07-77.916 32.07-32.084 77.884-32.084t77.929 32.084q32.115 32.083 32.115 77.916 0 37.461-22.692 66.73-22.692 29.269-57.308 38.577v94.693h205.385q20.847 0 35.424-14.577 14.577-14.578 14.577-35.424v-44.692Q730.77-614 708.077-643.269q-22.692-29.269-22.692-66.73 0-45.833 32.07-77.916 32.07-32.084 77.884-32.084t77.929 32.084q32.116 32.083 32.116 77.916 0 37.461-22.693 66.73-22.692 29.269-57.307 38.577V-560q0 45.833-32.084 77.916-32.083 32.083-77.916 32.083H509.999v94.693q34.616 9.308 57.308 38.577t22.692 66.73q0 45.833-32.07 77.916-32.07 32.084-77.884 32.084t-77.929-32.084q-32.115-32.083-32.115-77.916 0-37.461 22.692-66.73 22.692-29.269 57.308-38.577v-94.693H195v94.693q34.615 9.308 57.307 38.577Q275-287.462 275-250.001q0 45.833-32.07 77.916-32.07 32.084-77.884 32.084ZM165-200q20.847 0 35.424-14.577 14.577-14.577 14.577-35.424 0-20.846-14.577-35.423-14.577-14.577-35.424-14.577-20.846 0-35.423 14.577Q115-270.847 115-250.001q0 20.847 14.577 35.424Q144.154-200 165-200Zm0-459.999q20.847 0 35.424-14.577 14.577-14.577 14.577-35.423 0-20.847-14.577-35.424Q185.847-760 165-760q-20.846 0-35.423 14.577Q115-730.846 115-709.999q0 20.846 14.577 35.423 14.577 14.577 35.423 14.577ZM480-200q20.846 0 35.424-14.577 14.577-14.577 14.577-35.424 0-20.846-14.577-35.423-14.578-14.577-35.424-14.577t-35.424 14.577q-14.577 14.577-14.577 35.423 0 20.847 14.577 35.424Q459.154-200 480-200Zm0-459.999q20.846 0 35.424-14.577 14.577-14.577 14.577-35.423 0-20.847-14.577-35.424Q500.846-760 480-760t-35.424 14.577q-14.577 14.577-14.577 35.424 0 20.846 14.577 35.423 14.578 14.577 35.424 14.577Zm315.384 0q20.847 0 35.424-14.577 14.577-14.577 14.577-35.423 0-20.847-14.577-35.424Q816.231-760 795.384-760q-20.846 0-35.423 14.577-14.577 14.577-14.577 35.424 0 20.846 14.577 35.423 14.577 14.577 35.423 14.577ZM165-250.001Zm0-459.998Zm315 459.998Zm0-459.998Zm315.384 0Z"/></svg>

<svg xmlns="http://www.w3.org/2000/svg" height="24" viewBox="0 -960 960 960" width="24"><path d="M165.05-140q-45.82 0-77.93-32.08Q55-204.17 55-250q0-37.46 22.69-66.73Q100.39-346 135-355.31v-249.38q-34.61-9.31-57.31-38.58Q55-672.54 55-710q0-45.83 32.07-77.92Q119.14-820 164.96-820q45.81 0 77.92 32.08Q275-755.83 275-710q0 37.46-22.69 66.73Q229.61-614 195-604.69V-510h255v-94.69q-34.61-9.31-57.31-38.58Q370-672.54 370-710q0-45.83 32.07-77.92Q434.14-820 479.95-820q45.82 0 77.93 32.08Q590-755.83 590-710q0 37.46-22.69 66.73Q544.61-614 510-604.69V-510h205.38q20.85 0 35.43-14.58 14.58-14.57 14.58-35.42v-44.69q-34.62-9.31-57.31-38.58-22.69-29.27-22.69-66.73 0-45.83 32.06-77.92Q749.52-820 795.34-820q45.81 0 77.93 32.08 32.11 32.09 32.11 77.92 0 37.46-22.69 66.73Q860-614 825.38-604.69V-560q0 45.83-32.08 77.92Q761.22-450 715.38-450H510v94.69q34.61 9.31 57.31 38.58Q590-287.46 590-250q0 45.83-32.07 77.92Q525.86-140 480.05-140q-45.82 0-77.93-32.08Q370-204.17 370-250q0-37.46 22.69-66.73Q415.39-346 450-355.31V-450H195v94.69q34.61 9.31 57.31 38.58Q275-287.46 275-250q0 45.83-32.07 77.92Q210.86-140 165.05-140Zm-.05-60q20.85 0 35.42-14.58Q215-229.15 215-250t-14.58-35.42Q185.85-300 165-300t-35.42 14.58Q115-270.85 115-250t14.58 35.42Q144.15-200 165-200Zm0-460q20.85 0 35.42-14.58Q215-689.15 215-710t-14.58-35.42Q185.85-760 165-760t-35.42 14.58Q115-730.85 115-710t14.58 35.42Q144.15-660 165-660Zm315 460q20.85 0 35.42-14.58Q530-229.15 530-250t-14.58-35.42Q500.85-300 480-300t-35.42 14.58Q430-270.85 430-250t14.58 35.42Q459.15-200 480-200Zm0-460q20.85 0 35.42-14.58Q530-689.15 530-710t-14.58-35.42Q500.85-760 480-760t-35.42 14.58Q430-730.85 430-710t14.58 35.42Q459.15-660 480-660Zm315.38 0q20.85 0 35.43-14.58 14.58-14.57 14.58-35.42t-14.58-35.42Q816.23-760 795.38-760q-20.84 0-35.42 14.58-14.58 14.57-14.58 35.42t14.58 35.42Q774.54-660 795.38-660ZM165-250Zm0-460Zm315 460Zm0-460Zm315.38 0Z"/></svg>
